!!!SOCIAL_FUNCTION:	songs received from animals
!!!PDT:	1918

Specific Region: Dakotas, Minnesota, Montana, Nebraska
!!!REG: Dakotas and Montana
!!!LING_GROUP: Siouan
!!!LANG: Tone
!!!OTL@ENG: Song of the Elks
!!!ONM: No. 46
**kern
*Imale
*clefF4
*k[b-e-a-d-g-]
*M3/4
*>[A,B,B]
*>norep[A,B]
*>A
*MM60
16e-
16e-
=1
4e-
16e-
16d-
16d-
16d-
4B-
=2
16e-
8.e-
16e-
16d-
16d-
[16B-
8B-]
24d-
24c
24B-
=3||
*M2/4
4.B-
8B-
=4
2B-
=5
2B-
*>B
=6!|:
8d-
8d-
4d-
=7
16d-
16B-
16B-
16F
8F
8F
=8
16B-
8.B-
16d-
16F
16F
16E-
=9||
*M3/4
16F
16E-
[8E-
2E-]
=10||
*M2/4
8E-
8E-
4E-
=11||
*M3/4
8E-
8E-
16D-
8.D-
4BB-
=12||
*M2/4
16E-
8.E-
4E-
=13||
*M3/4
12D-
12D-
12D-
16D-
8.D-
8D-
8D-
=14||
*M2/4
4.BB-
8BB-
=15
4.BB-
8BB-
=16
4BB-
4BB-
==:|!
*-
!!!CNT: Native American -- Sioux
!!!MRD: 1911/07//-1914///
!!!OCL: Frances Densmore
!!!YOR1: Teton Sioux Music, Bulletin 61,
!!!YOR2: Bureau of American Ethnology, Smithsonian Institution
!!!PPR: Government Printing Office
!!!PPP: Washington, D.C.
!!!PDT: 1918///
!!!ENC: Craig Stuart Sapp
!!!END: 2002/03/25/
!!!EEV: 2002/03/31/
!!!AGN: Song of Personal Dreams/Song Received from Animals
!!!MPN@@SIO: Tatang'ka-ohi'tika
!!!MPN@ENG: Brave Buffalo
!!!TXO: Teton Sioux
!!!MLC: Standing Rock Reservation, South Dakota, United States of America
!!!ARL: 45.9/-100.7#
!!!catalog: Catalogue No. 609
!!!PPG: 177
!!!EFL: 46/245
!!!VTS: 3352185465
